!!!!SEGMENT: Vin2003-Salve_regina_III--Munich_34
!!!id: Vin2003
!!!SMS: Munich 34
!!!AGN: Motet
!!!voices: 4
!!!COM: Jheronimus Vinders
!!!OTL: Salve regina III (Munich 34)
**kern	**kern	**kern	**kern
*part4	*part3	*part2	*part1
*staff4	*staff3	*staff2	*staff1
*I"Bassus	*I"Tenor	*I"Altus	*I"Superius
*I'B.	*I'T.	*I'A.	*I'S.
*clefF4	*clefGv2	*clefGv2	*clefG2
*k[]	*k[]	*k[]	*k[]
*M3/1	*M3/1	*M3/1	*M3/1
*met(O)	*met(O)	*met(O)	*met(O)
=1	=1	=1	=1
!!section: Prima pars: Vita dulcedo
!!!OMD: Prima pars: Vita dulcedo
0D	1A	0.d	0a
.	1F	.	.
1BB	1G	.	1b
=2	=2	=2	=2
0.AA	1.A	2c	0.cc
.	.	1A	.
.	1c	4G	.
.	.	4F	.
.	.	1E	.
.	4B	.	.
.	4A	.	.
=3	=3	=3	=3
0.BB	2G	0.D	0.dd
.	2.B	.	.
.	4A	.	.
.	1A	.	.
.	2G#i	.	.
=4	=4	=4	=4
0.AA	0A	1.E	1cc
.	.	.	2r
.	.	1e	1cc
.	1r	.	.
.	.	4d	4b
.	.	4c	4a
=5	=5	=5	=5
0.r	0.r	2B	2g
.	.	2d	2.b
.	.	2e	.
.	.	.	4a
.	.	2c	1a
.	.	1B	.
.	.	.	2g#i
=6	=6	=6	=6
0.r	1.A	2.A	0a
.	.	4B	.
.	.	4c	.
.	.	4d	.
.	4G	1e	.
.	4F	.	.
.	1E	.	1r
.	.	4d	.
.	.	4c	.
=7	=7	=7	=7
0.r	1G	2B	0.r
.	.	1e	.
.	2A	.	.
.	2F	1d	.
.	1E	.	.
.	.	2c#i	.
=8	=8	=8	=8
1.D	2.D	1d	0.r
.	4E	.	.
.	4F	1r	.
.	4G	.	.
4C	1A	.	.
4BB	.	.	.
1AA	.	1r	.
.	4G	.	.
.	4F	.	.
=9	=9	=9	=9
1C	2E	0ryy	0.r
.	2.A	.	.
2D	.	.	.
.	4G	.	.
2BB	1G	.	.
1AA	.	1r	.
.	2F#i	.	.
=10	=10	=10	=10
1GG	1G	2r	2.d
.	.	2d	.
.	.	.	4e
1r	1r	2B	4f
.	.	.	4g
.	.	1c	2.a
2.AA	1r	.	.
.	.	.	4g
.	.	4B	4g
4BB	.	4A	4f
=11	=11	=11	=11
2C	0.r	2G	2e
2AA	.	2c	1a
2BB	.	2d	.
2GG	.	2B	1g
1D	.	1A	.
.	.	.	2f#i
=12	=12	=12	=12
2.GG	0G	4G	0g
.	.	4A	.
.	.	4B	.
4AA	.	4c	.
2BB	.	2d	.
1C	.	2.e	.
.	2.A	.	1r
.	.	4d	.
2AA	.	4c	.
.	4G	4B	.
=13	=13	=13	=13
2D	4F	2A	0.r
.	4E	.	.
2BB	2D	1d	.
1AA	1E	.	.
.	.	2c#i	.
2r	1D	1d	.
2D	.	.	.
=14	=14	=14	=14
1.E	2.G	2B	0g
.	.	2c	.
.	4A	.	.
.	2B	2B	.
4D	1c	1e	.
4C	.	.	.
1F	.	.	1a
.	4B	2d	.
.	4A	.	.
=15	=15	=15	=15
0E	1B	1e	2g
.	.	.	1b
.	2G	0e	.
.	2A	.	1a
1E	1B	.	.
.	.	.	2g#i
=16	=16	=16	=16
1.F	2.A	1c	0a
.	4B	.	.
.	2c	1r	.
4E	1d	.	.
4D	.	.	.
1E	.	1r	1r
.	2c#i	.	.
=17	=17	=17	=17
1D	1d	0f	2.a
.	.	.	4b
1r	1r	.	2cc
.	.	.	1dd
1r	1r	1e	.
.	.	.	2cc#i
=18	=18	=18	=18
2.D	0d	1d	2.dd
4E	.	.	4cc
2F	.	1r	2a
2.G	.	.	2.b
.	2B	2r	.
8FL	.	.	8aL
8EJ	.	.	8gJ
2E	[2c	2e	2g
=19	=19	=19	=19
2F	4c]	2c	1a
.	8BL	.	.
.	8AJ	.	.
1D	2A	2.d	.
.	2B	.	2f
.	.	4B	.
2.E	1G	1B	2.g
8DL	.	.	8fL
8CJ	.	.	8eJ
2C	[2A	2c	2e
=20	=20	=20	=20
1D	4A]	1A	1f
.	8GL	.	.
.	8FJ	.	.
.	2F	.	.
2BB	2G	2B	2d
2.C	1E	1G	2.e
8BBL	.	.	8dL
8AAJ	.	.	8cJ
2AA	[2F	2A	2c
=21	=21	=21	=21
2D	4F]	2F	2A
.	8EL	.	.
.	8DJ	.	.
2BB	2D	2G	1d
1AA	1E	1.A	.
.	.	.	2c#i
2r	1D	.	2d
[2D	.	2F	[2f
=22	=22	=22	=22
4D]	0.r	2B-i	4f]
4E	.	.	4g
2F	.	2A	2a
2G	.	2d	2b
2A	.	2c	2cc
2.F	.	1f	2.a
4G	.	.	4b
=23	=23	=23	=23
2A	1r	2e	2cc
2B-i	.	2d	1dd
1A	1r	1e	.
.	.	.	2cc#i
[1Dl	[1Dl	[1dl	[1ddl
=24	=24	=24	=24
0.D]	0.D]	0.d]	0.dd]
=25||	=25||	=25||	=25||
*M2/1	*M2/1	*M2/1	*M2/1
*met(C|)	*met(C|)	*met(C|)	*met(C|)
!!section: Secunda pars: Ad te
!!!OMD: Secunda pars: Ad te
0r	0r	1r	1.f
.	.	[1F	.
.	.	.	2g
=26	=26	=26	=26
0r	0r	2F]	2a
.	.	2G	2b
.	.	2A	1cc
.	.	2B	.
=27	=27	=27	=27
0r	0r	1c	1a
.	.	[1d	[1b
=28	=28	=28	=28
0r	0r	2d]	2b]
.	.	2c	2a
.	.	2B	[1a
.	.	2A	.
=29	=29	=29	=29
0r	0r	0B	1a]
.	.	.	1g#i
=30	=30	=30	=30
[0D	1.F	0A	0a
.	2G	.	.
=31	=31	=31	=31
1D]	2A	0r	0r
.	2B	.	.
1E	1c	.	.
=32	=32	=32	=32
1C	1A	0r	0r
[1D	[1B	.	.
=33	=33	=33	=33
2D]	2B]	0r	0r
2C	2A	.	.
2BB	[1A	.	.
2AA	.	.	.
=34	=34	=34	=34
0BB	1A]	0r	0r
.	1G#i	.	.
=35	=35	=35	=35
1AA	1.A	1e	[0a
1D	.	1f	.
.	2B	.	.
=36	=36	=36	=36
2C	2c	2e	0a]
1.D	1A	2.f	.
.	.	4e	.
.	4G	[2d	.
.	4F	.	.
=37	=37	=37	=37
1AA	1E	2d]	1r
.	.	2c#i	.
[1D	1F	2d	[1a
.	.	[2A	.
=38	=38	=38	=38
1D]	0D	2A]	1a]
.	.	4G	.
.	.	4F	.
1BB	.	1G	1b
=39	=39	=39	=39
0AA	1E	2A	1.cc
.	.	1e	.
.	2r	.	.
.	2E	4d	4b
.	.	4c	4a
=40	=40	=40	=40
0r	2.E	1.B	2.g
.	4D	.	4f
.	2E	.	2g
.	2F	2A	2a
=41	=41	=41	=41
0r	1E	1B	1g
.	2r	2r	2r
.	2E	2B	2g
=42	=42	=42	=42
0r	2.E	1.B	2.g
.	4D	.	4f
.	2E	.	2g
.	2F	2A	2a
=43	=43	=43	=43
1r	1E	1B	1g
2r	2r	2r	2r
2E	2B	2e	2g
=44	=44	=44	=44
2.E	2.B	2.e	2.g
4F	4A	4d	4a
2E	2B	[1e	2g
2AA	2c	.	2a
=45	=45	=45	=45
2E	1B	2e]	2g
2F	.	2d	1a
1E	1r	1e	.
.	.	.	2g#i
=46	=46	=46	=46
2.AA	2r	2.c	0a
.	1A	.	.
4BB	.	4d	.
2C	.	2e	.
2D	4G	2f	.
.	4F	.	.
=47	=47	=47	=47
2C	4G	2e	0r
.	4F	.	.
2BB	4E	1d	.
.	4D	.	.
1AA	1E	.	.
.	.	2c#i	.
=48	=48	=48	=48
2r	2.D	0d	0r
1D	.	.	.
.	4E	.	.
.	2F	.	.
4C	[2G	.	.
4BB	.	.	.
=49	=49	=49	=49
4C	2G]	0r	0r
4BB	.	.	.
4AA	4F#i	.	.
4GG	4E	.	.
1AA	1F#i	.	.
=50	=50	=50	=50
1GG	1G	2r	2r
.	.	1d	1b
1r	1r	.	.
.	.	4c	4a
.	.	4B	4g
=51	=51	=51	=51
0r	0r	4c	4a
.	.	4B	4g
.	.	4A	4f#i
.	.	4G	4e
.	.	1A	1f#i
=52	=52	=52	=52
2r	2.G	0G	0g
1G	.	.	.
.	4A	.	.
.	2B	.	.
4F	[2c	.	.
4E	.	.	.
=53	=53	=53	=53
4F	2c]	1r	0r
4E	.	.	.
4D	4B	.	.
4C	4A	.	.
1D	1B	1d	.
=54	=54	=54	=54
1C	2.c	2.e	0r
.	4B	4g	.
1r	2A	2f	.
.	2G	2e	.
=55	=55	=55	=55
0r	2F	2d	1r
.	2E	1c	.
.	1D	.	1d
.	.	2B	.
=56	=56	=56	=56
2.C	1C	1c	2.e
4D	.	.	4f
2E	1r	2B	2g
2F	.	2A	[2a
=57	=57	=57	=57
1D	0r	1d	2a]
.	.	.	2f
2F	.	2c	2a
2G	.	2B	[2b
=58	=58	=58	=58
2.E	0r	1e	2b]
.	.	.	2g
4F	.	.	.
2G	.	2d	2b
[2A	.	2c	[2cc
=59	=59	=59	=59
2A]	0r	0d	2cc]
4G	.	.	4b
4F	.	.	4a
1G	.	.	1b
=60	=60	=60	=60
1C	0r	1c	1.cc
1r	.	2.f	.
.	.	.	4b
.	.	4e	4a
=61	=61	=61	=61
0r	1D	2d	2b
.	.	1c	1a
.	1D	.	.
.	.	2B	4g
.	.	.	4f
=62	=62	=62	=62
0r	1C	0c	1e
.	[1F	.	1r
=63	=63	=63	=63
1D	2F]	1r	0r
.	2G	.	.
1D	2A	1F	.
.	2B	.	.
=64	=64	=64	=64
1.C	1c	1G	0r
.	2A	2E	.
[2D	[2B	[2F	.
=65	=65	=65	=65
4D]	4B]	4F]	1d
4C	4A	4E	.
4BB	1A	4D	.
4AA	.	4C	.
1BB	.	1D	1d
.	2G#i	.	.
=66	=66	=66	=66
1AA	0A	1E	1c
2r	.	1r	[1f
[2D	.	.	.
=67	=67	=67	=67
2D]	0d	0r	2f]
2E	.	.	2g
2F	.	.	2a
2G	.	.	2b
=68	=68	=68	=68
1.A	1.c	1e	1cc
.	.	2f	2a
[2G	[2d	[2g	[2b
=69	=69	=69	=69
2G]	2d]	4g]	4b]
.	.	4f	4a
2A	2c	1.e	1a
1E	1B	.	.
.	.	.	2g#i
=70	=70	=70	=70
2AA	0A	2c	0a
1D	.	1f	.
4C	.	4e	.
4BB	.	4d	.
=71	=71	=71	=71
2C	0r	2e	0r
2E	.	2g	.
2D	.	2f	.
[2G	.	[2e	.
=72	=72	=72	=72
2G]	0r	2e]	1r
2F	.	1d	.
1E	.	.	1g
.	.	2c#i	.
=73	=73	=73	=73
0D	0A	1.d	1.f
.	.	2e	2g
=74	=74	=74	=74
1D	1A	1f	1a
1GG	2G	1g	1b
.	2B	.	.
=75	=75	=75	=75
2AA	2A	0e	2cc
2BB	2G	.	2.dd
1AA	1A	.	.
.	.	.	4cc#i
.	.	.	2cc#i
=76	=76	=76	=76
1r	[0Al	[0dl	[0ddl
1D	.	.	.
=77	=77	=77	=77
0Dl	0A]	0d]	0dd]
=78||	=78||	=78||	=78||
*M2/1	*M2/1	*M2/1	*M2/1
*met(C|)	*met(C|)	*met(C|)	*met(C|)
!!section: Tertia pars: Et Ihesum
!!!OMD: Tertia pars: Et Ihesum
0r	0r	1.d	0dd
.	.	[2f	.
=79	=79	=79	=79
0r	0r	2f]	0a
.	.	4e	.
.	.	4d	.
.	.	2c	.
.	.	[2f	.
=80	=80	=80	=80
0r	0r	2f]	0cc
.	.	4e	.
.	.	4d	.
.	.	1e	.
=81	=81	=81	=81
1D	0d	1d	2.dd
.	.	.	4cc
2G	.	1r	2b
[2F	.	.	[2a
=82	=82	=82	=82
2F]	0A	1.c	2a]
4E	.	.	4g
4D	.	.	4f
2C	.	.	2e
2D	.	4B	2f
.	.	4A	.
=83	=83	=83	=83
2E	0c	2G	2g
2F	.	2F	2a
1E	.	1G	1g
=84	=84	=84	=84
0D	2.d	1A	0f
.	4c	.	.
.	2B	1d	.
.	[2A	.	.
=85	=85	=85	=85
2.AA	2A]	2c	1.cc
.	4G	1e	.
4BB	4F	.	.
2C	2E	.	.
2D	[2F	2d	4b
.	.	.	4a
=86	=86	=86	=86
2AA	4F]	2c	1cc
.	4E	.	.
2C	1E	1A	.
1BB	.	.	2dd
.	2D	2G	2b
=87	=87	=87	=87
1AA	1E	2.A	1.cc
.	.	4B	.
1r	1r	2c	.
.	.	2d	[2b
=88	=88	=88	=88
0r	0r	2A	2b]
.	.	2c	1a
.	.	1B	.
.	.	.	2g#i
=89	=89	=89	=89
2.D	0r	2A	1a
.	.	2.f	.
4E	.	.	.
2F	.	.	1r
.	.	4e	.
2G	.	[2e	.
=90	=90	=90	=90
2D	0r	2e]	0r
2F	.	1d	.
1E	.	.	.
.	.	2c#i	.
=91	=91	=91	=91
1.D	2.D	2d	2.a
.	.	2.A	.
.	4E	.	4g
.	2F	.	2f
.	.	4B	.
2C	2G	2c	[2e
=92	=92	=92	=92
1D	2D	2B	2e]
.	2F	2.A	1d
1AA	1E	.	.
.	.	4G	.
.	.	2A	2c#i
=93	=93	=93	=93
2.BB-X	2D	2F	1d
.	1B	2.D	.
4AA	.	.	.
2GG	.	.	1r
.	.	4E	.
2FF	[2A	2F	.
=94	=94	=94	=94
1GG	2A]	2D	2r
.	1G	[1.d	2.b-X
1D	.	.	.
.	.	.	4a
.	2F	.	[2a
=95	=95	=95	=95
1E	1G	2d]	4a]
.	.	.	4g
.	.	2c#i	1g
1D	1A	1d	.
.	.	.	2f#i
=96	=96	=96	=96
1GG	2r	2B	1g
.	1G	1e	.
1r	.	.	1r
.	2F	[2d	.
=97	=97	=97	=97
0r	1E	4d]	2r
.	.	4c	.
.	.	1c	1g
.	1D	.	.
.	.	2B	2f
=98	=98	=98	=98
1C	2C	2c	1e
.	1C	1.G	.
1GG	.	.	1d
.	2BB	.	.
=99	=99	=99	=99
2AA	2C	2A	2c
2C	2E	1.G	1c
1GG	1D	.	.
.	.	.	2B
=100	=100	=100	=100
0C	1C	2A	2c
.	.	1G	2.g
.	1G	.	.
.	.	.	4f
.	.	2c	[2e
=101	=101	=101	=101
1D	1F	2B	4e]
.	.	.	4d
.	.	1.A	1d
1AA	1E	.	.
.	.	.	2c#i
=102	=102	=102	=102
1D	1D	1A	2d
.	.	.	2a
1r	1r	1e	2b
.	.	.	2cc
=103	=103	=103	=103
0r	1D	1f	2a
.	.	.	1dd
.	1A	1e	.
.	.	.	2cc#i
=104	=104	=104	=104
0r	0B	1d	1dd
.	.	1r	1d
=105	=105	=105	=105
0AA	2A	[0e	0a
.	1c	.	.
.	4B	.	.
.	4A	.	.
=106	=106	=106	=106
0E	2G	0e]	0b
.	1A	.	.
.	2G#i	.	.
=107	=107	=107	=107
0F	0A	1c	2a
.	.	.	1cc
.	.	2A	.
.	.	[2c	4b
.	.	.	4a
=108	=108	=108	=108
0E	0r	2c]	2g
.	.	4B	1a
.	.	4A	.
.	.	1B	.
.	.	.	2g#i
=109	=109	=109	=109
1.AA	[0A	2.c	2.a
.	.	4d	4b
.	.	2e	2cc
[2D	.	2f	[2a
=110	=110	=110	=110
2D]	0A]	2d	2a]
2C	.	2e	1g
1D	.	[1d	.
.	.	.	2f#i
=111	=111	=111	=111
2r	0G	1d]	2g
2.GG	.	.	1dd
.	.	2B	.
4AA	.	.	.
4BB	.	[2d	4cc
4C	.	.	4b
=112	=112	=112	=112
1D	0F	2d]	2a
.	.	4c	2g
.	.	4B	.
1D	.	2A	1a
.	.	[2d	.
=113	=113	=113	=113
0GG	0G	4d]	2r
.	.	4c	.
.	.	4B	1b-X
.	.	4A	.
.	.	2G	.
.	.	[2d	4a
.	.	.	4g
=114	=114	=114	=114
0r	1r	2d]	2f
.	.	4c	1g
.	.	4B	.
.	1D	1A	.
.	.	.	2f
=115	=115	=115	=115
1.C	2.E	1G	2.g
.	4D	.	4f
.	2E	2c	2e
2D	[2F	2A	[2d
=116	=116	=116	=116
2BB	2F]	2B	2d]
2C	2E	[1.G	1c
1GG	1D	.	.
.	.	.	2B
=117	=117	=117	=117
2r	1C	2G]	0c
2.AA	.	2.c	.
.	1r	.	.
4BB	.	4d	.
2C	.	2e	.
=118	=118	=118	=118
2BB	0r	2d	0r
2C	.	1c	.
1D	.	.	.
.	.	2B	.
=119	=119	=119	=119
0C	1r	1c	0r
.	1G	2r	.
.	.	[2e	.
=120	=120	=120	=120
0r	1A	2e]	1r
.	.	1f	.
.	1G	.	1g
.	.	[2e	.
=121	=121	=121	=121
0r	2F	2e]	1a
.	2D	1d	.
.	1E	.	1g
.	.	2c#i	.
=122	=122	=122	=122
1.D	2.D	0d	2.f
.	4E	.	4g
.	2F	.	2a
2GG	2G	.	2b-i
=123	=123	=123	=123
2C	1E	1e	2g
1AA	.	.	1cc
.	2F	1d	.
2GG	2G	.	[2b
=124	=124	=124	=124
1AA	1E	2c	2b]
.	.	2A	1a
1EE 1E	2r	1B	.
.	[2E	.	2g#i
=125	=125	=125	=125
1AA	2E]	1A	1.a
.	1F	.	.
1r	.	[1c	.
.	4E	.	4g
.	4D	.	4f
=126	=126	=126	=126
0r	2C	2c]	2e
.	4D	2B	2f
.	4E	.	.
.	2F	2A	1a
.	2F	[2d	.
=127	=127	=127	=127
0r	2G	2d]	2b
.	2A	2c	2cc
.	2.F	1f	2.a
.	4G	.	4b
=128	=128	=128	=128
0r	2A	2e	2cc
.	2B-i	2d	1dd
.	[1A	1e	.
.	.	.	2cc#i
=129	=129	=129	=129
[0D	2A]	1d	1dd
.	2B-i	.	.
.	2A	1r	2r
.	[2d	.	2a
=130	=130	=130	=130
0D]	2d]	1D	2b
.	1c	.	1a
.	.	1F	.
.	2B	.	4g
.	.	.	4f
=131	=131	=131	=131
1C	2.c	1G	2e
.	.	.	2g
.	4B	.	.
2D	2A	2d	2f
2E	[2G	2B	[2e
=132	=132	=132	=132
2C	2G]	2c	2e]
2D	2F	2.A	1d
1AA	1E	.	.
.	.	4G	.
.	.	2E	2c#i
=133	=133	=133	=133
0Dl	0Dl	0Fl	0dl
=134||	=134||	=134||	=134||
*M3/1	*M3/1	*M3/1	*M3/1
*met(O|)	*met(O|)	*met(O|)	*met(O|)
!!section: Quarta pars: O pya
!!!OMD: Quarta pars: O pya
1r	1r	0d	[0.a
0D	1r	.	.
.	1A	1f	.
=135	=135	=135	=135
1.F	1A	2f	0.a_
.	.	1f	.
.	1.c	.	.
1F	.	4e	.
.	.	4d	.
.	.	1f	.
4E	[2c	.	.
4D	.	.	.
=136	=136	=136	=136
0.F	2c]	2r	0.a]
.	4B	1f	.
.	4A	.	.
.	1A	.	.
.	.	4e	.
.	.	4d	.
.	1r	2c	.
.	.	2d	.
=137	=137	=137	=137
1.E	2r	1.e	[0.g
.	1B	.	.
1G	2E	4d	.
.	.	4c	.
.	1E	2B	.
2C	.	2c	.
=138	=138	=138	=138
1.E	2.G	2B	0.g_
.	.	2E	.
.	4A	.	.
.	2B	2.G	.
4D	2c	.	.
4C	.	4A	.
1E	2B	2B	.
.	2E	2c	.
=139	=139	=139	=139
2r	2.G	2B	0.g]
1E	.	1.e	.
.	4A	.	.
.	2B	.	.
4D	2c	.	.
4C	.	.	.
1E	1B	1e	.
=140	=140	=140	=140
2.AA	0A	2.c	[0.a
4BB	.	4d	.
2C	.	2e	.
2D	.	2f	.
2C	1r	2e	.
[2D	.	[2f	.
=141	=141	=141	=141
2D]	1d	2f]	0.a_
4C	.	4e	.
4BB	.	4d	.
2AA	2c	2e	.
[1.D	1d	2d	.
.	.	1f	.
.	4c	.	.
.	4B	.	.
=142	=142	=142	=142
2D]	2A	2d	0.a]
2C	2.c	2.e	.
1AA	.	.	.
.	4B	4d	.
.	4A	4c	.
.	4G	4B	.
1D	1F	2A	.
.	.	[2d	.
=143	=143	=143	=143
1.GG	2.G	4d]	0.b
.	.	4c	.
.	.	4B	.
.	4A	4A	.
.	4B	1G	.
.	4c	.	.
1GG	1d	.	.
.	.	1d	.
2GG	4c	.	.
.	4B	.	.
=144	=144	=144	=144
1.AA	1A	2c	0.cc
.	.	1A	.
.	2r	.	.
1AA	1c	4G	.
.	.	4F	.
.	.	1E	.
2AA	4B	.	.
.	4A	.	.
=145	=145	=145	=145
1.BB	2G	0D	0.dd
.	2.B	.	.
.	4A	.	.
1BB	1A	.	.
.	.	1D	.
2BB	2G#i	.	.
=146	=146	=146	=146
0.AA	0.A	1.E	1cc
.	.	.	2a
.	.	1e	1cc
.	.	4d	4b
.	.	4c	4a
=147	=147	=147	=147
0.E	0.B	2B	2g
.	.	1.e	2.b
.	.	.	4a
.	.	.	1a
.	.	[1el	.
.	.	.	2g#i
=148	=148	=148	=148
0.AAl	0.Al	0.e]	0.al
==	==	==	==
*-	*-	*-	*-
!!!system-decoration: s1,s2,s3,s4
!!!RDF**kern: i = editorial accidental
!!!RDF**kern: l = terminal long
!!!ENC: Max Blistain
!!!END: 2025/11/27
!!!EED: Benjamin Ory
!!!EEV: 2025/12/04
!!!YEC: Copyright 2025 Benjamin Ory, All Rights Reserved
!!!ONB: Translated from MusicXML on 2025/12/04